X: 1
T: Far Away
C: Pete Jung
%D:1992
R: waltz
S: Fiddle Hell Online 2022-4-6 handout for Abby Newton cello workshop
Z: 2022 John Chambers <jc:trillian.mit.edu>
M: 3/4
L: 1/8
K: Bm
V: 1 nm=Cello clef=bass middle=D
FA |\
"Bm"B3 (F Bd) | "F#m"cA F2 (FA) | "Bm"B3 F B"4"e | "A"c4 (dc) ||
"G"B3 G Bd | "F#m"(cA) F2 de | "Bm"(fe dc) BA | "Bm"B4  :|
|: de | "D"f3 (d fa) | "A"ec A2 (de ) | "D"f2 (fd) fa | "Em"e4 de ||
"Bm"(fd B)(e "A"cA) | "G"(dB G)(c "F#m"AF) | "Bm"F2 B2 "F#m"A2 | "Bm"B6 :|
